images/icons/mobile/alergic.svg

<svg width="94" height="94" viewBox="0 0 94 94" fill="none" xmlns="http://www.w3.org/2000/svg">
<circle cx="47" cy="47" r="46" stroke="#51AAA0" stroke-width="2" stroke-dasharray="2 2"/>
<path d="M31.5383 46.9306L23.313 55.009C20.963 68.639 31.7338 71.6549 37.413 71.4591L44.463 64.409M31.5383 46.9306L22.1383 37.9715C21.355 31.3132 23.5483 18.9365 38.5883 22.6965L47.9887 30.774M31.5383 46.9306L47.9887 30.774M47.9887 30.774L49.7512 29.043M62.6762 46.1959L70.9005 37.9715C73.2505 22.9315 62.088 21.5215 56.213 22.6965L49.7512 29.043M62.6762 46.1959L70.9005 55.009C74.4262 61.4715 70.9005 73.809 56.213 69.6965L46.2262 62.6459M62.6762 46.1959L46.2262 62.6459M46.2262 62.6459L44.463 64.409M49.7512 29.043L58.5637 37.9715M60.9137 39.734L62.6762 41.4965M32.1262 51.484L33.8887 53.2465M35.6512 55.009L44.463 64.409M38.5883 48.5465L47.9887 37.9715C51.5137 36.9924 58.2112 37.149 56.8012 45.609L46.2262 56.7715C42.8968 57.1632 36.708 56.0665 38.5883 48.5465Z" stroke="#51AAA0" stroke-width="1.5" stroke-linecap="round" stroke-linejoin="round"/>
<path d="M43.4746 51.1126C43.9446 50.6426 48.3704 45.8251 50.5246 43.4751" stroke="#51AAA0" stroke-width="1.5" stroke-linecap="round" stroke-linejoin="round"/>
</svg>

<svg xmlns="http://www.w3.org/2000/svg" width="94" height="94" fill="none"><circle cx="47" cy="47" r="46" stroke="#51AAA0" stroke-dasharray="2 2" stroke-width="2"/><path stroke="#51AAA0" stroke-linecap="round" stroke-linejoin="round" stroke-width="1.5" d="m31.538 46.93-8.225 8.079c-2.35 13.63 8.42 16.646 14.1 16.45l7.05-7.05M31.538 46.931l-9.4-8.96c-.783-6.658 1.41-19.034 16.45-15.274l9.4 8.077m-16.45 16.157 16.45-16.157m0 0 1.763-1.731m12.925 17.153 8.224-8.224c2.35-15.04-8.812-16.45-14.687-15.276l-6.462 6.347m12.925 17.153 8.224 8.813c3.526 6.462 0 18.8-14.687 14.688l-9.987-7.051m16.45-16.45-16.45 16.45m0 0-1.763 1.763m5.288-35.366 8.813 8.928m2.35 1.763 1.762 1.762m-30.55 9.988 1.763 1.762m1.762 1.763 8.812 9.4m-5.875-15.863 9.4-10.575c3.526-.979 10.223-.822 8.813 7.638L46.226 56.772c-3.33.391-9.518-.706-7.638-8.225Z"/><path stroke="#51AAA0" stroke-linecap="round" stroke-linejoin="round" stroke-width="1.5" d="M43.475 51.113c.47-.47 4.895-5.288 7.05-7.638"/></svg>
